static/img/device/component-cable-earth.svg

<svg width="245" height="52" viewBox="0 0 245 52" fill="none" xmlns="http://www.w3.org/2000/svg">
<g clip-path="url(#clip0_784_38144)">
<path d="M195.05 8.14C195.05 8.14 -3.79001 -9.5 0.489991 28.99C4.76999 67.48 199.68 43.25 199.68 43.25V39.45C199.68 39.45 7.61999 60.59 5.71999 27.44C5.71999 27.44 2.62999 18.3 35.19 13.31C35.19 13.31 88.06 5.35 195.05 14.56" fill="white"/>
<path d="M195.05 8.14C195.05 8.14 -3.79001 -9.5 0.489991 28.99C4.76999 67.48 199.68 43.25 199.68 43.25V39.45C199.68 39.45 7.61999 60.59 5.71999 27.44C5.71999 27.44 2.62999 18.3 35.19 13.31C35.19 13.31 88.06 5.35 195.05 14.56" stroke="#231815" stroke-width="0.85" stroke-miterlimit="10"/>
<path d="M228.018 35.6326L210.457 37.8449L210.961 41.8532L228.523 39.6409L228.018 35.6326Z" fill="white" stroke="#231815" stroke-width="0.85" stroke-miterlimit="10"/>
<path d="M199.68 41.11L210.73 40.02" stroke="#231815" stroke-width="2" stroke-miterlimit="10"/>
<path d="M233.77 21.7C239.59 21.82 244.3 16.98 244.3 11.17C244.3 5.36001 239.58 0.640015 233.77 0.640015C226.27 0.640015 227.55 5.59001 219.89 5.59001H208.56V16.76H219.89C227.55 16.76 226.27 21.55 233.77 21.71V21.7ZM227.47 11.17C227.47 7.69001 230.29 4.87001 233.77 4.87001C237.25 4.87001 240.07 7.69001 240.07 11.17C240.07 14.65 237.25 17.47 233.77 17.47C230.29 17.47 227.47 14.65 227.47 11.17Z" fill="white" stroke="#221F20" stroke-width="1.28" stroke-linejoin="round"/>
<path d="M218.61 17.13V5.22002C218.61 4.77819 218.252 4.42001 217.81 4.42001L195.47 4.42001C195.028 4.42001 194.67 4.77819 194.67 5.22002V17.13C194.67 17.5718 195.028 17.93 195.47 17.93H217.81C218.252 17.93 218.61 17.5718 218.61 17.13Z" fill="white" stroke="#221F20" stroke-width="1.28" stroke-linejoin="round"/>
<path d="M215.26 14.94V7.40001C215.26 7.25089 215.139 7.13 214.99 7.13H208.83C208.681 7.13 208.56 7.25089 208.56 7.40001V14.94C208.56 15.0891 208.681 15.21 208.83 15.21H214.99C215.139 15.21 215.26 15.0891 215.26 14.94Z" fill="#221F20" stroke="#221F20" stroke-width="1.28" stroke-linejoin="round"/>
<path d="M204.73 14.94V7.40001C204.73 7.25089 204.609 7.13 204.46 7.13H198.3C198.151 7.13 198.03 7.25089 198.03 7.40001V14.94C198.03 15.0891 198.151 15.21 198.3 15.21H204.46C204.609 15.21 204.73 15.0891 204.73 14.94Z" fill="#221F20" stroke="#221F20" stroke-width="1.28" stroke-linejoin="round"/>
</g>
<defs>
<clipPath id="clip0_784_38144">
<rect width="244.94" height="51.21" fill="white"/>
</clipPath>
</defs>
</svg>

<svg xmlns="http://www.w3.org/2000/svg" width="245" height="52" fill="none" viewBox="0 0 245 52"><g clip-path="url(#a)"><path fill="#fff" d="M195.05 8.14S-3.79-9.5.49 28.99s199.19 14.26 199.19 14.26v-3.8S7.62 60.59 5.72 27.44c0 0-3.09-9.14 29.47-14.13 0 0 52.87-7.96 159.86 1.25"/><path stroke="#231815" stroke-miterlimit="10" stroke-width=".85" d="M195.05 8.14S-3.79-9.5.49 28.99s199.19 14.26 199.19 14.26v-3.8S7.62 60.59 5.72 27.44c0 0-3.09-9.14 29.47-14.13 0 0 52.87-7.96 159.86 1.25"/><path fill="#fff" stroke="#231815" stroke-miterlimit="10" stroke-width=".85" d="m228.018 35.633-17.561 2.212.504 4.008 17.562-2.212z"/><path stroke="#231815" stroke-miterlimit="10" stroke-width="2" d="m199.68 41.11 11.05-1.09"/><path fill="#fff" stroke="#221f20" stroke-linejoin="round" stroke-width="1.28" d="M233.77 21.7c5.82.12 10.53-4.72 10.53-10.53S239.58.64 233.77.64c-7.5 0-6.22 4.95-13.88 4.95h-11.33v11.17h11.33c7.66 0 6.38 4.79 13.88 4.95zm-6.3-10.53a6.3 6.3 0 0 1 6.3-6.3 6.3 6.3 0 0 1 6.3 6.3 6.3 6.3 0 0 1-6.3 6.3 6.3 6.3 0 0 1-6.3-6.3Z"/><path fill="#fff" stroke="#221f20" stroke-linejoin="round" stroke-width="1.28" d="M218.61 17.13V5.22a.8.8 0 0 0-.8-.8h-22.34a.8.8 0 0 0-.8.8v11.91a.8.8 0 0 0 .8.8h22.34a.8.8 0 0 0 .8-.8Z"/><path fill="#221f20" stroke="#221f20" stroke-linejoin="round" stroke-width="1.28" d="M215.26 14.94V7.4a.27.27 0 0 0-.27-.27h-6.16a.27.27 0 0 0-.27.27v7.54c0 .15.121.27.27.27h6.16a.27.27 0 0 0 .27-.27ZM204.73 14.94V7.4a.27.27 0 0 0-.27-.27h-6.16a.27.27 0 0 0-.27.27v7.54c0 .15.121.27.27.27h6.16a.27.27 0 0 0 .27-.27Z"/></g><defs><clipPath id="a"><path fill="#fff" d="M0 0h244.94v51.21H0z"/></clipPath></defs></svg>
